!!!COM: Britten, (Edward) Benjamin
!!!OTL: Spring Symphony for Soprano, Alto and Tenor Soli, Mixed Chorus, Boys' Choir and Orchestra, op. 44
!!!OMV: Part 1, Text 5: The Morning Star
!!!example: 812
!!!work: Bri-33
**kern	**dynam	**kern	**dynam	**kern	**dynam	**kern	**dynam	**kern	**dynam	**kern	**dynam	**kern	**dynam	**kern	**dynam	**kern	**dynam	**kern	**dynam	**kern	**dynam
*grp:A	*grp:A	*grp:A	*grp:A	*grp:A	*grp:A	*grp:B	*grp:B	*grp:B	*grp:B	*grp:B	*grp:B	*grp:B	*grp:B	*grp:B	*grp:B	*grp:B	*grp:B	*grp:B	*grp:B	*grp:B	*grp:B
*part11	*part11	*part10	*part10	*part9	*part9	*part8	*part8	*part7	*part7	*part6	*part6	*part5	*part5	*part4	*part4	*part3	*part3	*part2	*part2	*part1	*part1
*staff11	*	*staff10	*	*staff9	*	*staff8	*	*staff7	*	*staff6	*	*staff5	*	*staff4	*	*staff3	*	*staff2	*	*staff1	*
*I"Bass	*	*I"Tenor	*	*I"Soprano	*	*I"Percussion	*	*I"Timpani	*	*I"Trombone	*	*I"Trombone	*	*I"Trumpet in C	*	*I"Trumpet in C	*	*I"Horn in F	*	*I"Horn in F	*
*I'B.	*	*I'T.	*	*I'S.	*	*I'Perc.	*	*I'Timp.	*	*I'Tbn.	*	*I'Tbn.	*	*I'C Tpt.	*	*I'C Tpt.	*	*I'Hn.	*	*I'Hn.	*
*clefF4	*	*clefGv2	*	*clefG2	*	*clefpercussion0	*	*clefF4	*	*clefF4	*	*clefF4	*	*clefG2	*	*clefG2	*	*clefG2	*	*clefG2	*
*k[b-]	*	*k[b-]	*	*k[b-]	*	*	*	*k[b-]	*	*k[b-]	*	*k[b-]	*	*k[b-]	*	*k[b-]	*	*	*	*	*
*F:	*	*F:	*	*F:	*	*	*	*F:	*	*F:	*	*F:	*	*F:	*	*F:	*	*	*	*	*
*M6/8	*	*M6/8	*	*M6/8	*	*M6/8	*	*M6/8	*	*M6/8	*	*M6/8	*	*M6/8	*	*M6/8	*	*M6/8	*	*M6/8	*
*MM66	*	*MM66	*	*MM66	*	*MM66	*	*MM66	*	*MM66	*	*MM66	*	*MM66	*	*MM66	*	*MM66	*	*MM66	*
=20	=20	=20	=20	=20	=20	=20	=20	=20	=20	=20	=20	=20	=20	=20	=20	=20	=20	=20	=20	=20	=20
(16FKL	.	(16FKL	.	(16fKL	.	8xt	>	8r	.	8AA`L	.	8AA`L 8C	.	8B-`L	.	8B-`L 8c	.	8G`L 8g	.	8G`L 8g	.
8G	.	8G	.	8g	.	.	.	.	.	.	.	.	.	.	.	.	.	.	.	.	.
.	.	.	.	.	.	8r	.	8C`	.	8AA`J	.	8AA`J 8C	.	8A`J	.	8A`J 8c	.	8G`J 8g	.	8G`J 8g	.
16Fk)	.	16Fk)	.	16fk)	.	.	.	.	.	.	.	.	.	.	.	.	.	.	.	.	.
8FJ	.	8FJ	.	8fJ	.	8r	]	8r	.	8r	.	8r	.	8r	.	8r	.	8r	.	8r	.
(4F	>	(4F	>	(4f	>	8r	.	8CT	>	8GG`L	.	8GG`L 8C	.	8A`L	.	8A`L 8c	.	8G`L 8g	.	8G`L 8g	.
.	.	.	.	.	.	8x`	.	8r	.	8GG`J	.	8GG`J 8C	.	8B-`J	.	8B-`J 8c	.	8G`J 8g	.	8G`J 8g	.
[8D	.	[8D	.	[8d	.	8r	.	8r	]	8r	.	8r	.	8r	.	8r	.	8r	.	8r	.
=21	=21	=21	=21	=21	=21	=21	=21	=21	=21	=21	=21	=21	=21	=21	=21	=21	=21	=21	=21	=21	=21
4D])	]	4D])	]	4d])	]	8xt	>	8r	.	8AA`L	.	8AA`L 8C	.	8B-`L	.	8B-`L 8c	.	8G`L 8g	.	8G`L 8g	.
.	.	.	.	.	.	8r	.	8C`	.	8AA`J	.	8AA`J 8C	.	8A`J	.	8A`J 8c	.	8G`J 8g	.	8G`J 8g	.
8r	.	8r	.	8r	.	8r	]	8r	.	8r	.	8r	.	8r	.	8r	.	8r	.	8r	.
8DL	<	8DL	<	8dL	<	8r	.	8CT	>	8GG`L	.	8GG`L 8C	.	8A`L	.	8A`L 8c	.	8G`L 8g	.	8G`L 8g	.
8E	.	8E	.	8e	.	8x`	.	8r	.	8GG`J	.	8GG`J 8C	.	8B-`J	.	8B-`J 8c	.	8G`J 8g	.	8G`J 8g	.
8FJ	[[	8FJ	[[	8fJ	[[	8r	.	8r	]	8r	.	8r	.	8r	.	8r	.	8r	.	8r	.
=22	=22	=22	=22	=22	=22	=22	=22	=22	=22	=22	=22	=22	=22	=22	=22	=22	=22	=22	=22	=22	=22
4G~	.	4G~	.	4g~	.	8xt	>	8r	.	8FF#X`L	.	8FF#X`L 8D	.	8B-`L	.	8B-`L 8d	.	8A`L 8a	.	8A`L 8a	.
.	.	.	.	.	.	8r	.	8D`	.	8FF#`J	.	8FF#`J 8D	.	8A`J	.	8A`J 8d	.	8A`J 8a	.	8A`J 8a	.
4A~	.	4A~	.	4a~	.	8r	]	8r	.	8r	.	8r	.	8r	.	8r	.	8r	.	8r	.
.	.	.	.	.	.	8r	.	8CT	>	8GG`L	.	8GG`L 8C	.	8A`L	.	8A`L 8c	.	8G`L 8g	.	8G`L 8g	.
4F#X~	.	4F#X~	.	4f#X~	.	8x`	.	8r	.	8GG`J	.	8GG`J 8C	.	8B-`J	.	8B-`J 8c	.	8G`J 8g	.	8G`J 8g	.
.	.	.	.	.	.	8r	.	8r	]	8r	.	8r	.	8r	.	8r	.	8r	.	8r	.
=23	=23	=23	=23	=23	=23	=23	=23	=23	=23	=23	=23	=23	=23	=23	=23	=23	=23	=23	=23	=23	=23
8.G~L	.	8.G~L	.	8.g~L	.	8xt	>	8r	.	8FF#X`L	.	8FF#X`L 8D	.	8B-`L	.	8B-`L 8d	.	8A`L 8a	.	8A`L 8a	.
.	.	.	.	.	.	8r	.	8D`	.	8FF#`J	.	8FF#`J 8D	.	8A`J	.	8A`J 8d	.	8A`J 8a	.	8A`J 8a	.
8.A~J	.	8.A~J	.	8.a~J	.	.	.	.	.	.	.	.	.	.	.	.	.	.	.	.	.
.	.	.	.	.	.	8r	]	8r	.	8r	.	8r	.	8r	.	8r	.	8r	.	8r	.
8.F#X~L	.	8.F#X~L	.	8.f#X~L	.	8r	.	8CT	>	8GG`L	.	8GG`L 8C	.	8A`L	.	8A`L 8c	.	8G`L 8g	.	8G`L 8g	.
.	.	.	.	.	.	8x`	.	8r	.	8GG`J	.	8GG`J 8C	.	8B-`J	.	8B-`J 8c	.	8G`J 8g	.	8G`J 8g	.
8.G~J	.	8.G~J	.	8.g~J	.	.	.	.	.	.	.	.	.	.	.	.	.	.	.	.	.
.	.	.	.	.	.	8r	.	8r	]	8r	.	8r	.	8r	.	8r	.	8r	.	8r	.
=24	=24	=24	=24	=24	=24	=24	=24	=24	=24	=24	=24	=24	=24	=24	=24	=24	=24	=24	=24	=24	=24
(4A	<	(4A	<	(4a	<	8xtL	>	8r	.	8FF#X`L	.	8FF#X`L 8D	.	8B-`L	.	8B-`L 8d	.	8A`L 8a	.	8A`L 8a	.
.	.	.	.	.	.	8x`J	.	8r	.	8FF#`	.	8FF#` 8D	.	8A`	.	8A` 8d	.	8A` 8a	.	8A` 8a	.
[8c	.	[8c	.	[8cc	.	8r	]	[8D^T	.	[8EE~J	<	[8EE~J [8D	<	[8c~J	<	[8c~J	<	8A~J 8a	<	8A~J 8a	<
4.c])	[[	4.c])	[[	4.cc])	[[	8r	.	8D]	.	8EEL]	.	8EEL] 8D]	.	8cL]	.	8cL]	.	[8AL [8a	.	[8AL [8a	.
.	.	.	.	.	.	8x`	<	8r	<	8FF#`	.	8FF#` 8D	.	8B-`	.	8B-`	.	8A] 8a]	.	8A] 8a]	.
.	.	.	.	.	.	8r	[	8D`	[[	8EE`J	[	8EE`J 8D	[	8c`J	[	8c`J	[	8A`J 8a	[	8A`J 8a	[
=25	=25	=25	=25	=25	=25	=25	=25	=25	=25	=25	=25	=25	=25	=25	=25	=25	=25	=25	=25	=25	=25
!!pagebreak:original
8r	.	8r	.	8r	.	2.x^t	> p ]]	2.r	.	2.EE-X^	mf	2.BB-^ 2.D-X	> mf ]]	2.B-^	mf	2.B-^ 2.e-X	> mf ]]	2.B-X^ 2.b-X	mf	2.B-X^ 2.b-X	> mf ]]
8e-X~L	f	8e-X~L	f	8ee-X~L	f	.	.	.	.	.	.	.	.	.	.	.	.	.	.	.	.
8c~J	.	8c~J	.	8cc~J	.	.	.	.	.	.	.	.	.	.	.	.	.	.	.	.	.
8.B-~L	.	8.B-~L	.	8.b-~L	.	.	.	.	.	.	.	.	.	.	.	.	.	.	.	.	.
(16B-L	>	(16B-L	>	(16b-L	>	.	.	.	.	.	.	.	.	.	.	.	.	.	.	.	.
16G	.	16G	.	16g	.	.	.	.	.	.	.	.	.	.	.	.	.	.	.	.	.
16E-XJJ)	]	16E-XJJ)	]	16e-XJJ)	]	.	.	.	.	.	.	.	.	.	.	.	.	.	.	.	.
=26	=26	=26	=26	=26	=26	=26	=26	=26	=26	=26	=26	=26	=26	=26	=26	=26	=26	=26	=26	=26	=26
(4F	.	(4F	.	(4f	.	8r	.	8CT	pp	8FF`L	p	8FF`L 8C	p	8B-`L	p	8B-`L 8c	p	8G`L 8g	p	8G`L 8g	p
.	.	.	.	.	.	8x`	pp	8r	.	8FF`J	.	8FF`J 8C	.	8An`J	.	8An`J 8c	.	8G`J 8g	.	8G`J 8g	.
4G)	.	4G)	.	4g)	.	8r	.	8r	.	8r	.	8r	.	8r	.	8r	.	8r	.	8r	.
.	.	.	.	.	.	8xt	.	8r	.	8EE-X`L	.	8E-X`L	.	8A`L	.	8A`L 8d	.	8A`L 8a	.	8A`L 8a	.
4En	.	4En	.	4en	.	8r	.	8D`	.	8EE-`J	.	8E-`J	.	8B-`J	.	8B-`J 8d	.	8A`J 8a	.	8A`J 8a	.
.	.	.	.	.	.	8r	.	8r	.	8r	.	8r	.	8r	.	8r	.	8r	.	8r	.
=27	=27	=27	=27	=27	=27	=27	=27	=27	=27	=27	=27	=27	=27	=27	=27	=27	=27	=27	=27	=27	=27
8FL	.	8FL	.	8fL	.	8r	.	8CT	.	8FF`L	.	8FF`L 8C	.	8B-`L	.	8c`L 8d	.	8G`L 8g	.	8G`L 8g	.
8A	.	8A	.	8a	.	8x`	.	8r	.	8FF`J	.	8FF`J 8C	.	8A`J	.	8A`J 8c	.	8G`J 8g	.	8G`J 8g	.
[8cJ	.	[8cJ	.	[8ccJ	.	8r	.	8r	.	8r	.	8r	.	8r	.	8r	.	8r	.	8r	.
4.c]	.	4.c]	.	4.cc]	.	8xt	<	8r	.	8EE-X`L	<	8E-X`L	<	8A`L	<	8A`L 8d	<	8A`L 8a	<	8A`L 8a	<
.	.	.	.	.	.	8r	.	8D`	<	8EE-`	.	8E-`	.	8B-`	.	8B-` 8d	.	8A` 8a	.	8A` 8a	.
.	.	.	.	.	.	8x	[[	8r	[[	8EE-~J	[[	8E-~J	[[	[8A~J	[[	[8A~J [8d	[[	[8A~J [8a	[[	[8A~J [8a	[[
=28	=28	=28	=28	=28	=28	=28	=28	=28	=28	=28	=28	=28	=28	=28	=28	=28	=28	=28	=28	=28	=28
8r	.	8r	.	8r	.	2.r	.	2.D^T	>]	2.DD	> mf ]]	2.AA 2.En	> mf ]]	2.A]	> mf ]]	2.A] 2.d]	> mf ]]	2.A] 2.a]	> mf ]]	2.A] 2.a]	> mf ]]
8d~L	f	8d~L	f	8dd~L	f	.	.	.	.	.	.	.	.	.	.	.	.	.	.	.	.
8Bn~J	.	8Bn~J	.	8bn~J	.	.	.	.	.	.	.	.	.	.	.	.	.	.	.	.	.
8.A~L	.	8.A~L	.	8.a~L	.	.	.	.	.	.	.	.	.	.	.	.	.	.	.	.	.
(16AL	>	(16AL	>	(16aL	>	.	.	.	.	.	.	.	.	.	.	.	.	.	.	.	.
16F#X	.	16F#X	.	16f#X	.	.	.	.	.	.	.	.	.	.	.	.	.	.	.	.	.
16DJJ)	]	16DJJ)	]	16dJJ)	]	.	.	.	.	.	.	.	.	.	.	.	.	.	.	.	.
=29	=29	=29	=29	=29	=29	=29	=29	=29	=29	=29	=29	=29	=29	=29	=29	=29	=29	=29	=29	=29	=29
!!pagebreak:original
(4E	p	(4E	p	(4e	p	8xt	> pp	8r	.	8EE`L	p	8EE`L 8D	p	8A`L	p	8A`L 8d	p	8A`L 8a	p	8A`L 8a	p
.	.	.	.	.	.	8r	.	8D`	pp	8EE`J	.	8EE`J 8D	.	8Bn`J	.	8Bn`J 8d	.	8A`J 8a	.	8A`J 8a	.
4F#X)	.	4F#X)	.	4f#X)	.	8r	]	8r	.	8r	.	8r	.	8r	.	8r	.	8r	.	8r	.
.	.	.	.	.	.	8r	.	8DT	>	8FF#X`L	.	8FF#X`L 8D	.	8B`L	.	8A`L 8d	.	8A`L 8a	.	8A`L 8a	.
4D	.	4D	.	4d	.	8x`	.	8r	.	8FF#`J	.	8FF#`J 8D	.	8A`J	.	8B`J 8d	.	8A`J 8a	.	8A`J 8a	.
.	.	.	.	.	.	8r	.	8r	]	8r	.	8r	.	8r	.	8r	.	8r	.	8r	.
=30	=30	=30	=30	=30	=30	=30	=30	=30	=30	=30	=30	=30	=30	=30	=30	=30	=30	=30	=30	=30	=30
8EL	.	8EL	.	8eL	.	8xt	>	8r	.	8EE`L	.	8EE`L 8D	.	8A`L	.	8A`L 8d	.	8A`L 8a	.	8A`L 8a	.
8Bn	>	8Bn	>	8bn	>	8r	.	8D`	.	8EE`J	.	8EE`J 8D	.	8Bn`J	.	8Bn`J 8d	.	8A`J 8a	.	8A`J 8a	.
[8AJ	.	[8AJ	.	[8aJ	.	8r	]	8r	.	8r	.	8r	.	8r	.	8r	.	8r	.	8r	.
4.A]	]]	4.A]	]]	4.a]	]]	8r	.	8DT	>	8FF#X`L	.	8FF#X`L 8D	.	8B`L	.	8A`L 8d	.	8A`L 8a	.	8A`L 8a	.
.	.	.	.	.	.	8x`	.	8r	.	8FF#`J	.	8FF#`J 8D	.	8A`J	.	8B`J 8d	.	8A`J 8a	.	8A`J 8a	.
.	.	.	.	.	.	8r	.	8r	]	8r	.	8r	.	8r	.	8r	.	8r	.	8r	.
=31	=31	=31	=31	=31	=31	=31	=31	=31	=31	=31	=31	=31	=31	=31	=31	=31	=31	=31	=31	=31	=31
4r	.	4r	.	4r	.	8xt	>	8r	.	8EE`L	.	8EE`L 8D	.	8A`L	.	8A`L 8d	.	8A`L 8a	.	8A`L 8a	.
.	.	.	.	.	.	8r	.	8D`	.	8EE`J	.	8EE`J 8D	.	8Bn`J	.	8Bn`J 8d	.	8A`J 8a	.	8A`J 8a	.
[8A	.	[8A	.	[8a	.	8r	]	8r	.	8r	.	8r	.	8r	.	8r	.	8r	.	8r	.
8AL]	>	8AL]	>	8aL]	>	8r	.	8DT	<	8FF#X`L	<	8FF#X`L 8D	<	8c`L	<	8A`L 8d	<	8A`L 8a	<	8A`L 8a	<
8G	.	8G	.	8g	.	8x`	<	8r	[	8GG`	.	8GG` 8D	.	8B-X`	.	8B` 8d	.	8A` 8a	.	8A` 8a	.
8FnJ	]]	8FnJ	]]	8fnJ	]]	8r	[	8CT	>]	[8AA~J	[ > ]]	[8AA~J [8C	[ > ]]	[8B-~J	[ > ]]	[8B~J [8c	[ > ]]	[8G~J [8g	[ > ]]	[8G~J [8g	[ > ]]
=	=	=	=	=	=	=	=	=	=	=	=	=	=	=	=	=	=	=	=	=	=
*-	*-	*-	*-	*-	*-	*-	*-	*-	*-	*-	*-	*-	*-	*-	*-	*-	*-	*-	*-	*-	*-
!!!system-decoration: [(s1,s2,s3,s4,s5,s6)][(s7)]s8[(s9,s10,s11)]
!!!CDT: 1913/11/22-1976/12/04
!!!CBL: Lowestoft, England
!!!CDL: Aldeburgh, England
!!!CNT: English
!!!AGN: Vocal; Choral
!!!MCN: Beinum, Eduard van
!!!MDT: 1949/07/14
!!!MGN: Dutch Radio Chorus; Concertgebouw Orchestra
!!!MLC: Amsterdam, The Netherlands
!!!MPD: 1949
!!!MPN: Ferrier, Kathleen; Pears, Peter; Vincent, Joe
!!!ODT: 1949
!!!PDT: 1951
!!!excerpt-start-measure: 20
!!!excerpt-end-measure: 31
!!!excerpt-start-time: 1:09
!!!excerpt-end-time: 1:46
!!!EEV: 2020/01/22
!!!ONB: Converted from MusicXML on 2020/01/22
